X:492
%%etbk:tnset id:216,pos:1,rep:3x,ant:
%%etbk:pldat 2016-06-13T17:27,2016-06-13T17:12,2015-12-31T15:00,2015-12-29T16:31,2015-12-24T15:12,2015-12-22T17:24,2014-09-25T18:52,2014-05-09T19:00,2014-05-07T16:53,2014-03-20T19:07,2013-11-23T16:23,2013-11-16T16:14,2013-11-12T18:41,2013-11-07T16:37,2013-11-04T18:58,2013-10-09T17:30,2013-10-02T17:26,2013-09-30T18:59,2013-09-29T16:37,2013-09-16T14:58,2013-09-11T18:58
T:Green Fields of Woodford
Z: Piano Box Version by Martin Fleischmann
H: Created 2013-09-10 /  Last Modified 2013-11-04
R:Jig
M:6/8
L:1/8
K:Gmaj
|:"G-Drone"!5!d!4!B!3!A !2!G2!1!E|!1!E!4!B/!2!G/!1!E !2!G2!4!d|!5!ed!3!B !4!dB!2!A|!3!B!5!e!3!e !3!e!5!ge|
!2!d!1!B!2!A !1!G2!2!E|!2!EDE !3!G2!5!B|!4!A!3!G!2!E !4!A2B|!3!GE!1!D D2!5!d:||
|:"G-Drone"!3!B!1!GG !4!d!1!GG|!5!ed!3!B !4!dB!2!A|!3!BGG !4!dGG|!5!ed!3!B !2!AGA|
|1!3!BGG !4!dGG|!5!edB !4!d!3!B!1!G|!4!AG!2!E !4!A2B|!3!GE!1!D D2!4!d:|
|2 !3!BAB !1!deg|age !1!d!3!B!1!G|!4!AG!2!E !4!A2B|!3!GED !1!D2!5!d||


